images/logo6.svg

<svg xmlns="http://www.w3.org/2000/svg" width="104" height="56" fill="none"><path fill="#8E8F99" d="M53.5293 27.4433c-.444-.5909-.6564-1.2891-.606-1.992v-2.8881c0-.8853.2009-1.5581.6026-2.0184.4018-.4603 1.0918-.6894 2.0701-.6875.9193 0 1.5719.1959 1.9577.5876.4209.4998.6257 1.1111.5788 1.7276v.6787H56.488v-.6875a3.4973 3.4973 0 0 0-.0476-.6728c-.0237-.1523-.1065-.2932-.2349-.3996-.1689-.1147-.3816-.1703-.5959-.1557-.2253-.0145-.4487.0441-.6264.1645-.1433.1179-.2388.2724-.2724.4407a3.3415 3.3415 0 0 0-.0647.7139v3.5051c-.0259.3381.0466.6765.2111.9842.0818.1042.1954.1867.3282.2386a.9026.9026 0 0 0 .4242.0552c.2107.015.4197-.042.5822-.1586.134-.1148.2202-.2645.2452-.426a3.8553 3.8553 0 0 0 .051-.7022v-.711h1.6445v.6493c.0462.6426-.1536 1.2806-.5686 1.8157-.3779.4289-1.0214.6434-1.9679.6434-.9465 0-1.6615-.2291-2.0667-.7051ZM60.3763 27.4727c-.4153-.4495-.623-1.1047-.623-1.9714v-3.038c0-.8579.2077-1.5072.623-1.9479.4154-.4407 1.11-.66 2.0837-.6581.9669 0 1.6581.2194 2.0734.6581.4154.4407.6265 1.09.6265 1.9479v3.038c0 .8579-.2111 1.516-.6333 1.9684-.4222.4525-1.1099.6787-2.0666.6787-.9567 0-1.6649-.2291-2.0837-.6757Zm2.8497-.7287c.1488-.2815.2165-.59.1975-.899v-3.7195c.0191-.3031-.0475-.6056-.1941-.8814-.0834-.1064-.1998-.1903-.3358-.2422a.9068.9068 0 0 0-.4336-.0516.9195.9195 0 0 0-.4348.0522c-.1365.0519-.2535.1355-.3381.2416-.1497.275-.2176.578-.1974.8814v3.7371c-.0207.3092.0471.6179.1974.8991a1.027 1.027 0 0 0 .3469.2228 1.161 1.161 0 0 0 .4226.0789 1.161 1.161 0 0 0 .4226-.0789 1.0255 1.0255 0 0 0 .3468-.2228v-.0177ZM67.1378 19.946h1.7705l1.3312 5.6052 1.3619-5.6052h1.7228l.1736 8.0905h-1.2734l-.1361-5.6228-1.3143 5.6228h-1.0214l-1.3619-5.6434-.1259 5.6434h-1.287l.16-8.0905ZM75.4829 19.946h2.7577c1.5889 0 2.3833.7658 2.3833 2.2973 0 1.4669-.8364 2.1994-2.5092 2.1974h-.9397v3.5958h-1.7023l.0102-8.0905Zm2.356 3.4577c.1682.0184.339.0051.5007-.039a1.2264 1.2264 0 0 0 .4356-.2166c.1952-.2732.2813-.5941.2451-.9136a2.5302 2.5302 0 0 0-.0817-.7344.5958.5958 0 0 0-.1253-.222.7049.7049 0 0 0-.2152-.1629 1.7631 1.7631 0 0 0-.7592-.1292h-.6605v2.4177h.6605ZM83.0787 19.946h1.8283l1.876 8.0905h-1.5866l-.3711-1.8655h-1.6308l-.3813 1.8655h-1.6104l1.8759-8.0905Zm1.5628 5.2879-.6367-3.396-.6367 3.396h1.2734ZM88.2981 19.946h1.1916l2.2812 4.6152V19.946h1.4129v8.0905h-1.1337l-2.2948-4.8179v4.8179h-1.4606l.0034-8.0905ZM96.4932 24.9516l-1.8964-4.9943h1.5968l1.1576 3.2081 1.0861-3.2081H100l-1.8726 4.9943v3.0847h-1.6342v-3.0847ZM56.1579 31.5736v.4231h-1.3891v3.2875h-.5822v-3.2875h-1.396v-.4231h3.3673ZM60.5123 35.2844h-.4494a.1998.1998 0 0 1-.126-.0352.1934.1934 0 0 1-.0749-.0852l-.4017-.8813h-1.9271l-.4018.8813a.243.243 0 0 1-.0612.0999.2078.2078 0 0 1-.126.0352h-.4494l1.7023-3.7104h.5924l1.7228 3.6957Zm-2.8191-1.3778h1.6071l-.681-1.51a2.7033 2.7033 0 0 1-.126-.3496c-.0238.0705-.0442.1381-.0647.1969l-.0612.1557-.6742 1.507ZM63.4472 34.9202c.1066.0048.2134.0048.32 0a1.9257 1.9257 0 0 0 .2724-.0441 2.0993 2.0993 0 0 0 .2452-.0676c.0749-.0264.1498-.0587.2281-.0911v-.8344h-.681a.1423.1423 0 0 1-.0495-.0064.128.128 0 0 1-.0424-.023.0864.0864 0 0 1-.0259-.0304.0746.0746 0 0 1-.0081-.0372v-.285h1.321v1.4221a2.5709 2.5709 0 0 1-.3405.1763 2.509 2.509 0 0 1-.3779.1263 3.0537 3.0537 0 0 1-.4256.0764 5.1531 5.1531 0 0 1-.4971.0235 2.596 2.596 0 0 1-.858-.1381c-.2549-.0884-.4865-.2203-.6809-.3878-.1896-.1692-.3388-.3688-.4392-.5876a1.8544 1.8544 0 0 1-.1566-.7698 1.9229 1.9229 0 0 1 .1532-.7757c.0979-.2199.2474-.42.4392-.5876.1943-.167.426-.2979.6809-.3849a2.8586 2.8586 0 0 1 .9125-.1381 3.4149 3.4149 0 0 1 .4732.0323 2.334 2.334 0 0 1 .4052.094c.1191.0386.2332.0878.3405.1469.1043.058.2034.1228.2962.1939l-.1634.2292a.1426.1426 0 0 1-.0553.0509.1709.1709 0 0 1-.0775.0196.2224.2224 0 0 1-.1056-.0294 2.1031 2.1031 0 0 1-.1668-.0881 1.5103 1.5103 0 0 0-.2281-.0999 2.1372 2.1372 0 0 0-.3133-.0823 2.6253 2.6253 0 0 0-.4324-.0323 2.018 2.018 0 0 0-.6571.1028c-.1894.0656-.3602.1659-.5004.2939-.1411.1334-.2489.2904-.3167.4613a1.7335 1.7335 0 0 0 0 1.2369c.0745.1745.1905.3337.3405.4672.1396.1273.3091.2275.4971.2938.2165.0641.4459.0892.6741.0735ZM68.8744 34.8611h1.859v.4231h-2.4276v-3.7106h.5822l-.0136 3.2875ZM72.6672 35.2842h-.5822v-3.7106h.5822v3.7106ZM74.8325 31.5913c.0346.017.0648.04.0886.0676l2.4887 2.797a.884.884 0 0 1 0-.1322V31.559h.5073v3.7255h-.2928a.2758.2758 0 0 1-.1259-.0206.3308.3308 0 0 1-.092-.0705l-2.4853-2.7941V35.2845h-.4869v-3.7108h.303c.0329 0 .0653.006.0953.0176ZM82.2037 31.5736v.4084h-2.0632v1.2251h1.6717v.3937h-1.6717v1.2663h2.0632v.4083h-2.6624v-3.7018h2.6624ZM21.1952 8.6587l25.8518 6.334v22.1956l-25.8518-6.3311V8.6587Zm-1.6581-1.892v25.1687l29.1646 7.1478V13.9175L19.5371 6.7667Z"/><path fill="#8E8F99" d="M35.168 50.7667 6 43.6129v-25.166l29.168 7.1508v25.169Z"/><path fill="#8E8F99" d="m20.0205 8.3737 25.5147 6.2546-10.8507 9.3658-25.5181-6.2576 10.8541-9.3628Zm-.4835-1.607L6 18.4475l29.168 7.1506 13.5336-11.6807L19.537 6.7667ZM36.8091 49.3509l11.8925-10.2646-11.8925-2.9172v13.1818Z"/></svg>

<svg width="104" height="56" viewBox="0 0 104 56" fill="none" xmlns="http://www.w3.org/2000/svg">
<path d="M53.5294 27.4433C53.0853 26.8524 52.8729 26.1542 52.9233 25.4513V22.5632C52.9233 21.6779 53.1242 21.0051 53.5259 20.5448C53.9277 20.0845 54.6177 19.8554 55.596 19.8573C56.5153 19.8573 57.1679 20.0532 57.5537 20.4449C57.9746 20.9447 58.1794 21.556 58.1325 22.1725V22.8512H56.4881V22.1637C56.4939 21.9386 56.478 21.7136 56.4404 21.4909C56.4168 21.3386 56.3339 21.1977 56.2055 21.0913C56.0366 20.9766 55.8239 20.921 55.6096 20.9356C55.3844 20.9211 55.1609 20.9797 54.9832 21.1001C54.84 21.218 54.7445 21.3725 54.7108 21.5408C54.6636 21.7765 54.642 22.0155 54.6461 22.2547V25.7598C54.6202 26.0979 54.6927 26.4363 54.8572 26.744C54.939 26.8482 55.0526 26.9307 55.1854 26.9826C55.3182 27.0344 55.465 27.0536 55.6096 27.0378C55.8203 27.0528 56.0294 26.9958 56.1919 26.8792C56.3258 26.7644 56.412 26.6147 56.437 26.4532C56.4754 26.2206 56.4925 25.9858 56.4881 25.751V25.04H58.1325V25.6893C58.1787 26.3319 57.9789 26.9699 57.564 27.505C57.186 27.9339 56.5425 28.1484 55.596 28.1484C54.6495 28.1484 53.9345 27.9193 53.5294 27.4433Z" fill="#8E8F99"/>
<path d="M60.3764 27.4727C59.961 27.0232 59.7533 26.368 59.7533 25.5013V22.4633C59.7533 21.6054 59.961 20.9561 60.3764 20.5154C60.7917 20.0747 61.4863 19.8554 62.46 19.8573C63.4269 19.8573 64.1181 20.0767 64.5334 20.5154C64.9488 20.9561 65.1599 21.6054 65.1599 22.4633V25.5013C65.1599 26.3592 64.9488 27.0173 64.5266 27.4697C64.1045 27.9222 63.4167 28.1484 62.46 28.1484C61.5033 28.1484 60.7951 27.9193 60.3764 27.4727ZM63.2261 26.744C63.3748 26.4625 63.4426 26.154 63.4235 25.845V22.1255C63.4426 21.8224 63.376 21.5199 63.2295 21.2441C63.146 21.1377 63.0297 21.0538 62.8936 21.0019C62.7575 20.9499 62.6073 20.932 62.46 20.9503C62.3123 20.9325 62.1617 20.9506 62.0252 21.0025C61.8887 21.0544 61.7717 21.138 61.6872 21.2441C61.5374 21.5191 61.4696 21.8221 61.4897 22.1255V25.8626C61.469 26.1718 61.5368 26.4805 61.6872 26.7617C61.783 26.8564 61.9013 26.9324 62.034 26.9845C62.1667 27.0365 62.3108 27.0634 62.4566 27.0634C62.6024 27.0634 62.7465 27.0365 62.8792 26.9845C63.0119 26.9324 63.1302 26.8564 63.2261 26.7617V26.744Z" fill="#8E8F99"/>
<path d="M67.1378 19.946H68.9083L70.2395 25.5512L71.6014 19.946H73.3242L73.4978 28.0365H72.2245L72.0883 22.4137L70.7741 28.0365H69.7526L68.3908 22.3931L68.2648 28.0365H66.9778L67.1378 19.946Z" fill="#8E8F99"/>
<path d="M75.4829 19.946H78.2407C79.8295 19.946 80.6239 20.7118 80.6239 22.2433C80.6239 23.7102 79.7875 24.4427 78.1147 24.4407H77.175V28.0365H75.4727L75.4829 19.946ZM77.8389 23.4037C78.0071 23.4221 78.1779 23.4088 78.3396 23.3647C78.5012 23.3206 78.6499 23.2467 78.7752 23.1481C78.9704 22.8749 79.0565 22.554 79.0203 22.2345C79.0292 21.9877 79.0018 21.7409 78.9386 21.5001C78.9143 21.4196 78.8717 21.3442 78.8133 21.2781C78.7548 21.212 78.6817 21.1567 78.5981 21.1152C78.3618 21.0174 78.1006 20.973 77.8389 20.986H77.1784V23.4037H77.8389Z" fill="#8E8F99"/>
<path d="M83.0787 19.946H84.907L86.783 28.0365H85.1964L84.8253 26.171H83.1945L82.8132 28.0365H81.2028L83.0787 19.946ZM84.6415 25.2339L84.0048 21.8379L83.3681 25.2339H84.6415Z" fill="#8E8F99"/>
<path d="M88.2981 19.946H89.4897L91.7709 24.5612V19.946H93.1839V28.0365H92.0501L89.7553 23.2186V28.0365H88.2947L88.2981 19.946Z" fill="#8E8F99"/>
<path d="M96.4932 24.9516L94.5968 19.9573H96.1936L97.3512 23.1654L98.4373 19.9573H100L98.1275 24.9516V28.0363H96.4932V24.9516Z" fill="#8E8F99"/>
<path d="M56.1579 31.5736V31.9967H54.7688V35.2842H54.1866V31.9967H52.7907V31.5736H56.1579Z" fill="#8E8F99"/>
<path d="M60.5124 35.2844H60.0629C60.0173 35.2869 59.9723 35.2743 59.937 35.2492C59.903 35.2277 59.8769 35.1981 59.8621 35.164L59.4603 34.2827H57.5332L57.1315 35.164C57.12 35.2009 57.0991 35.235 57.0702 35.2639C57.0346 35.2885 56.9898 35.301 56.9442 35.2991H56.4948L58.1971 31.5887H58.7896L60.5124 35.2844ZM57.6932 33.9066H59.3003L58.6193 32.3966C58.5691 32.2824 58.527 32.1657 58.4933 32.047C58.4695 32.1175 58.4491 32.1851 58.4287 32.2439L58.3674 32.3996L57.6932 33.9066Z" fill="#8E8F99"/>
<path d="M63.4472 34.9202C63.5538 34.925 63.6606 34.925 63.7673 34.9202C63.8593 34.912 63.9504 34.8972 64.0396 34.8761C64.123 34.8584 64.205 34.8359 64.2848 34.8085C64.3597 34.7821 64.4346 34.7498 64.5129 34.7174V33.883H63.8319C63.8151 33.8838 63.7983 33.8816 63.7824 33.8766C63.7666 33.8715 63.7522 33.8637 63.74 33.8536C63.7288 33.8453 63.72 33.8349 63.7141 33.8232C63.7082 33.8115 63.7054 33.7988 63.706 33.786V33.501H65.027V34.9231C64.9192 34.9897 64.8053 35.0486 64.6865 35.0994C64.5651 35.1511 64.4387 35.1934 64.3086 35.2257C64.1694 35.2611 64.027 35.2866 63.883 35.3021C63.718 35.3179 63.552 35.3258 63.3859 35.3256C63.0923 35.3278 62.801 35.2809 62.5279 35.1875C62.2731 35.0991 62.0415 34.9672 61.847 34.7997C61.6575 34.6305 61.5082 34.4309 61.4078 34.2121C61.3005 33.9661 61.2474 33.705 61.2512 33.4423C61.2476 33.1778 61.2995 32.9151 61.4044 32.6666C61.5023 32.4467 61.6519 32.2466 61.8436 32.079C62.0379 31.912 62.2696 31.7811 62.5245 31.6941C62.8161 31.5994 63.1255 31.5526 63.437 31.556C63.5955 31.5558 63.7538 31.5666 63.9103 31.5883C64.0486 31.6077 64.1844 31.6392 64.3154 31.6823C64.4345 31.7209 64.5486 31.7701 64.6559 31.8292C64.7602 31.8872 64.8593 31.952 64.9521 32.0231L64.7887 32.2523C64.7759 32.2732 64.7568 32.2908 64.7334 32.3032C64.7101 32.3156 64.6833 32.3224 64.6559 32.3228C64.6182 32.3218 64.5816 32.3116 64.5503 32.2934C64.4993 32.2699 64.4448 32.2406 64.3835 32.2053C64.3111 32.1661 64.2348 32.1327 64.1554 32.1054C64.0539 32.0703 63.9491 32.0427 63.8422 32.0231C63.6996 32.0005 63.5548 31.9896 63.4098 31.9908C63.1851 31.9887 62.9621 32.0236 62.7527 32.0936C62.5632 32.1592 62.3924 32.2595 62.2522 32.3875C62.1111 32.5209 62.0033 32.6779 61.9355 32.8488C61.7834 33.2506 61.7834 33.6838 61.9355 34.0857C62.01 34.2602 62.126 34.4194 62.276 34.5529C62.4156 34.6802 62.5851 34.7804 62.7731 34.8467C62.9896 34.9108 63.219 34.9359 63.4472 34.9202Z" fill="#8E8F99"/>
<path d="M68.8744 34.8611H70.7334V35.2842H68.3058V31.5736H68.888L68.8744 34.8611Z" fill="#8E8F99"/>
<path d="M72.6672 35.2842H72.085V31.5736H72.6672V35.2842Z" fill="#8E8F99"/>
<path d="M74.8326 31.5913C74.8671 31.6083 74.8973 31.6313 74.9211 31.6589L77.4099 34.4559C77.4065 34.4119 77.4065 34.3677 77.4099 34.3237C77.4099 34.2826 77.4099 34.2414 77.4099 34.2032V31.559H77.9171V35.2845H77.6244C77.581 35.2875 77.5375 35.2804 77.4984 35.2639C77.463 35.2454 77.4319 35.2215 77.4065 35.1934L74.9211 32.3993C74.9211 32.4433 74.9211 32.4845 74.9211 32.5256C74.9211 32.5667 74.9211 32.6049 74.9211 32.6402V35.2845H74.4342V31.5737H74.7372C74.7701 31.5737 74.8026 31.5797 74.8326 31.5913Z" fill="#8E8F99"/>
<path d="M82.2037 31.5736V31.982H80.1405V33.2071H81.8122V33.6008H80.1405V34.8671H82.2037V35.2754H79.5413V31.5736H82.2037Z" fill="#8E8F99"/>
<path d="M21.1952 8.65871L47.047 14.9927V37.1883L21.1952 30.8572V8.65871ZM19.5371 6.76672V31.9354L48.7017 39.0832V13.9175L19.5371 6.76672Z" fill="#8E8F99"/>
<path d="M35.168 50.7667L6.00001 43.6129V18.4469L35.168 25.5977V50.7667Z" fill="#8E8F99"/>
<path d="M20.0205 8.37371L45.5352 14.6283L34.6845 23.9941L9.16637 17.7365L20.0205 8.37371ZM19.537 6.76672L6.00001 18.4475L35.168 25.5981L48.7016 13.9174L19.537 6.76672Z" fill="#8E8F99"/>
<path d="M36.8091 49.3509L48.7016 39.0863L36.8091 36.1691V49.3509Z" fill="#8E8F99"/>
</svg>
